X:1608
T:Atholl Highlanders Jig
M:6/8
L:1/8
R:Jig
G:Jigs ~ LRB
H:From the Lamprey River Band Tunebook, a part of the NH Country Dance website.
H:Look for more tunes (New England, Canadian, Swedish) plus resources for 
H:abc notation and New England traditional music and dance; URL below.
U:s = !slide!       % To preserve font, staff layout & other formatting,
U:t = !trill!       % use the file header at the URL below. There are
F:Tunes Home Page - http://nhcountrydance.com/fiddle/the-tunes.html
F:File Header & instructions - http://nhcountrydance.com/fiddle/headers.html
K:A
  "A" e3 ecA   | "A" ecA "(E7)" Bcd | "A" e3 ecA      | "E7" Bcd cBA     |
   "A" e3 ecA  | "A" ecA "E7" Bcd   | "A" eae "D" fed | "E7" cdB "A" A3 :|
|:"A" Ace Ace  | "D" Adf Adf        | "A" Ace Ace     | "E7" Bcd cBA     |
   "A" Ace Ace | "D" Adf Adf        | "A" eae "D" fed | "E7" cdB "A" A3 :|
|:"A" a2e edc  | "A" a2e edc        | "A" a2e edc     | "E7" Bcd c2A     |
   "A" a2e edc | "A" a2e edc        | "A" a2e "D" fed | "E7" cdB "A" A3 :|
|:"A" cAc cAc  | "D" dBd dBd        | "A" cAc cAc     | "G" B=GB BGB     | 
   "A" cAc cAc | "D" dBd dBd        | "A" eae "D" fed | "E7" cdB "A" A3 :|

